libs/icons/src/svg/downsell.svg

<svg width="16" height="16" viewBox="0 0 16 16" fill="none" xmlns="http://www.w3.org/2000/svg">
<path fill-rule="evenodd" clip-rule="evenodd" d="M14.8166 10.7238L10.5405 15L9.59766 14.0572L12.2644 11.3904H5.8737C3.29618 11.3904 1.20703 9.30129 1.20703 6.72377V0.72377H2.54036V6.72377C2.54036 8.56491 4.03255 10.0571 5.8737 10.0571H12.2643L9.59766 7.39049L10.5405 6.44768L14.8166 10.7238Z" fill="#202327"/>
</svg>

<svg xmlns="http://www.w3.org/2000/svg" viewBox="0 0 16 16" class="sageicon"><path fill-rule="evenodd" d="M14.817 10.724 10.54 15l-.942-.943 2.666-2.667h-6.39a4.666 4.666 0 0 1-4.667-4.666v-6H2.54v6a3.333 3.333 0 0 0 3.334 3.333h6.39L9.598 7.39l.942-.942 4.277 4.276Z"/></svg>
